file/goldman-sachs.svg

<svg clip-rule="evenodd" fill-rule="evenodd" stroke-linejoin="round" stroke-miterlimit="1.41421" viewBox="0 0 560 400" xmlns="http://www.w3.org/2000/svg"><g transform="matrix(1.63555 0 0 1.63555 145 64.9992)"><path d="m0 0h165.082v165.083h-165.082z" fill="#64a8f0"/><path d="m49.811 69.332h-5.385v-2.524c-.673 1.682-2.524 2.86-5.049 2.86-2.188 0-5.554-.842-5.554-6.058 0-4.88 3.199-5.889 6.565-7.404 3.365-1.515 3.701-1.683 3.701-2.861v-3.702c0-1.683-.842-2.356-2.524-2.188-.673 0-1.851.337-1.851 1.178-.168 1.178 1.01 1.178 1.178 2.692.169 2.189-1.683 3.029-3.366 3.029-1.177-.168-2.524-.84-2.693-2.692-.168-2.861 3.198-5.385 7.91-5.385 2.188 0 3.533.337 4.712 1.01 1.515 1.01 2.356 2.188 2.356 5.216zm27.934-27.43v6.563c.842-1.178 2.357-2.02 4.207-2.188 3.702-.337 6.226 2.02 6.226 6.732v16.323h-5.889v-16.997c0-2.02 0-3.702-1.347-4.038-.504-.169-1.345 0-2.019.504-.841.842-1.178 1.851-1.178 3.534v16.997h-5.722v-6.059c-1.009 2.861-4.543 6.395-8.582 6.395-3.534 0-9.759-1.683-9.759-11.442 0-9.088 6.057-11.949 9.255-11.949 2.524 0 4.207.673 5.216 2.356.842 1.346 1.01 3.534-.168 4.881-1.515 1.513-4.713 1.177-5.216-.842-.505-1.852.503-2.693 1.177-3.534.673-.673.505-1.683-1.009-1.683-2.02 0-2.693 2.188-3.03 4.88-.336 4.207-.336 8.077.169 11.443.336 2.356 1.009 4.543 3.87 4.543 4.039.169 8.077-5.216 8.077-10.937v-15.482zm28.102 10.433h-1.177c-.673-2.524-1.683-4.711-4.375-4.88-1.683-.168-3.198.842-3.367 2.356-.168 1.514.337 2.861 3.367 4.543 3.87 2.188 6.899 3.198 6.899 7.742 0 4.88-4.207 7.236-7.741 7.236h-6.732v-8.415h1.179c.842 4.376 2.188 7.068 5.385 7.236 2.019 0 3.533-1.177 3.533-3.365 0-2.187-1.346-3.534-4.543-5.386-3.533-2.187-5.722-3.533-5.722-6.562 0-4.039 2.862-6.563 7.405-6.563h5.889zm-76.567-32.815h-1.177c-1.01-4.711-3.198-8.246-6.227-8.414-2.02-.168-3.196 1.01-4.207 2.694-1.009 2.018-1.515 6.225-1.515 11.274 0 4.712.169 8.245.674 10.77.336 1.178 1.178 3.029 3.365 3.029 1.178 0 2.02-.337 2.525-1.01.842-1.01 1.01-3.029 1.01-4.375v-4.544c0-1.682-.505-2.692-1.347-3.197-.673-.337-1.683-.337-2.188-.505v-1.178h9.424v24.064h-1.178c-.504-1.851-.841-3.197-1.682-4.712-.842-1.514-2.357-3.196-4.881-3.196-2.692-.169-4.712 1.514-4.712 4.038 0 3.366 2.02 4.207 5.722 6.225 3.534 2.02 8.077 3.704 8.077 9.593 0 5.722-4.88 9.256-10.433 9.256h-8.919v-11.611h1.178c1.515 8.75 5.217 10.264 7.741 10.264 3.198 0 4.711-2.019 4.711-4.88-.168-3.703-2.691-5.048-6.225-6.899-5.048-2.861-7.405-4.208-7.405-8.919.168-4.039 3.367-6.563 6.9-7.572-7.405-.842-9.592-7.572-9.424-14.81 0-7.235 4.207-14.976 12.452-14.976h7.741zm14.809 36.181-1.851 1.178c-1.85 1.178-2.187 2.692-2.356 4.375-.168 1.347-.168 2.692 0 4.544 0 2.019 1.179 2.355 2.187 1.85 1.347-.505 2.02-2.523 2.02-5.047zm89.188-18.007h-5.553v-2.523c-.673 1.851-2.524 3.028-5.049 3.028-2.019 0-5.553-1.009-5.553-6.225 0-4.881 3.198-5.89 6.732-7.405 3.197-1.345 3.533-1.515 3.533-2.861v-3.702c0-1.514-.84-2.188-2.524-2.188-.673.168-1.851.505-1.851 1.346-.169 1.011 1.009 1.011 1.178 2.525.168 2.356-1.683 3.197-3.365 3.029-1.179 0-2.525-.673-2.693-2.524-.168-3.03 3.197-5.553 7.909-5.553 2.188 0 3.534.504 4.712 1.177 1.514.842 2.524 2.188 2.524 5.217zm-86.159-21.034c-1.346-1.178-3.029-2.019-5.049-2.019-2.018 0-3.533.841-5.048 2.019-2.356 2.02-3.87 5.722-3.87 9.76 0 4.207 1.514 7.74 3.87 9.761 1.515 1.177 3.03 2.018 5.048 2.018 2.02 0 3.703-.841 5.049-2.018 2.525-2.021 3.87-5.554 3.87-9.761 0-4.038-1.345-7.74-3.87-9.76zm34.498-6.226v27.26h-5.553v-2.187c-.505 1.179-1.852 2.524-4.208 2.524-5.889 0-7.404-7.572-7.236-12.116.168-6.731 3.534-11.106 7.741-11.106 1.683 0 2.862.841 3.366 2.019v-6.394zm10.769 4.712v2.524c.673-1.515 2.357-2.861 4.543-3.029 2.693-.168 4.544.841 5.385 3.197.674-1.346 2.188-3.029 4.712-3.197 3.702-.168 6.227 2.019 6.227 6.731v16.322h-5.722v-16.995c0-2.019-.168-3.702-1.514-4.039-.505-.168-1.178 0-1.851.504-.842.842-1.178 1.852-1.178 3.367v17.163h-5.722v-16.995c0-2.019 0-3.702-1.346-4.039-.504-.168-1.177 0-1.851.504-1.01.842-1.178 1.852-1.178 3.535v16.995h-5.721v-22.548zm-31.636 22.548h-5.89v-27.26h5.89zm83.634 0h-5.721v-22.548h5.385v2.524c.673-1.515 2.356-2.861 4.544-3.029 3.702-.168 6.226 2.019 6.226 6.731v16.322h-5.89v-16.995c0-2.019 0-3.702-1.346-4.039-.505-.168-1.346 0-2.02.504-.841.842-1.178 1.852-1.178 3.535zm-99.452-11.274c0 4.207 0 7.573-.674 9.256-.504.841-1.01 1.346-2.188 1.346-1.008 0-1.681-.505-2.018-1.346-.842-1.683-.842-5.049-.842-9.256 0-4.038 0-7.572.842-9.256.337-.841 1.01-1.346 2.018-1.346 1.178 0 1.684.505 2.188 1.346.843 1.684.674 5.218.674 9.256zm29.785-9.423c1.178 1.683 1.178 5.721 1.178 8.918 0 3.365.169 7.741-1.178 9.592-.505.674-1.009 1.01-1.851 1.01-1.177 0-1.851-1.346-2.187-3.534-.169-2.019-.169-4.544-.169-7.236 0-4.543.337-9.592 2.524-9.592.842 0 1.178.337 1.683.842zm52.671 7.235-1.851 1.178c-1.851 1.179-2.188 2.693-2.356 4.376-.168 1.346-.168 2.524 0 4.543.168 1.852 1.347 2.188 2.356 1.852 1.179-.505 1.851-2.693 1.851-5.049z" fill="#fff"/></g></svg>

<?xml version="1.0" encoding="UTF-8" standalone="no"?>
<!DOCTYPE svg PUBLIC "-//W3C//DTD SVG 1.1//EN" "http://www.w3.org/Graphics/SVG/1.1/DTD/svg11.dtd">
<svg width="100%" height="100%" viewBox="0 0 560 400" version="1.1" xmlns="http://www.w3.org/2000/svg" xmlns:xlink="http://www.w3.org/1999/xlink" xml:space="preserve" xmlns:serif="http://www.serif.com/" style="fill-rule:evenodd;clip-rule:evenodd;stroke-linejoin:round;stroke-miterlimit:1.41421;">
    <g transform="matrix(1.63555,0,0,1.63555,145,64.9992)">
        <rect id="path10" x="0" y="0" width="165.082" height="165.083" style="fill:rgb(100,168,240);"/>
        <path id="path14" d="M49.811,69.332L44.426,69.332L44.426,66.808C43.753,68.49 41.902,69.668 39.377,69.668C37.189,69.668 33.823,68.826 33.823,63.61C33.823,58.73 37.022,57.721 40.388,56.206C43.753,54.691 44.089,54.523 44.089,53.345L44.089,49.643C44.089,47.96 43.247,47.287 41.565,47.455C40.892,47.455 39.714,47.792 39.714,48.633C39.546,49.811 40.724,49.811 40.892,51.325C41.061,53.514 39.209,54.354 37.526,54.354C36.349,54.186 35.002,53.514 34.833,51.662C34.665,48.801 38.031,46.277 42.743,46.277C44.931,46.277 46.276,46.614 47.455,47.287C48.97,48.297 49.811,49.475 49.811,52.503L49.811,69.332ZM77.745,41.902L77.745,48.465C78.587,47.287 80.102,46.445 81.952,46.277C85.654,45.94 88.178,48.297 88.178,53.009L88.178,69.332L82.289,69.332L82.289,52.335C82.289,50.315 82.289,48.633 80.942,48.297C80.438,48.128 79.597,48.297 78.923,48.801C78.082,49.643 77.745,50.652 77.745,52.335L77.745,69.332L72.023,69.332L72.023,63.273C71.014,66.134 67.48,69.668 63.441,69.668C59.907,69.668 53.682,67.985 53.682,58.226C53.682,49.138 59.739,46.277 62.937,46.277C65.461,46.277 67.144,46.95 68.153,48.633C68.995,49.979 69.163,52.167 67.985,53.514C66.47,55.027 63.272,54.691 62.769,52.672C62.264,50.82 63.272,49.979 63.946,49.138C64.619,48.465 64.451,47.455 62.937,47.455C60.917,47.455 60.244,49.643 59.907,52.335C59.571,56.542 59.571,60.412 60.076,63.778C60.412,66.134 61.085,68.321 63.946,68.321C67.985,68.49 72.023,63.105 72.023,57.384L72.023,41.902L77.745,41.902ZM105.847,52.335L104.67,52.335C103.997,49.811 102.987,47.624 100.295,47.455C98.612,47.287 97.097,48.297 96.928,49.811C96.76,51.325 97.265,52.672 100.295,54.354C104.165,56.542 107.194,57.552 107.194,62.096C107.194,66.976 102.987,69.332 99.453,69.332L92.721,69.332L92.721,60.917L93.9,60.917C94.742,65.293 96.088,67.985 99.285,68.153C101.304,68.153 102.818,66.976 102.818,64.788C102.818,62.601 101.472,61.254 98.275,59.402C94.742,57.215 92.553,55.869 92.553,52.84C92.553,48.801 95.415,46.277 99.958,46.277L105.847,46.277L105.847,52.335ZM29.28,19.52L28.103,19.52C27.093,14.809 24.905,11.274 21.876,11.106C19.856,10.938 18.68,12.116 17.669,13.8C16.66,15.818 16.154,20.025 16.154,25.074C16.154,29.786 16.323,33.319 16.828,35.844C17.164,37.022 18.006,38.873 20.193,38.873C21.371,38.873 22.213,38.536 22.718,37.863C23.56,36.853 23.728,34.834 23.728,33.488L23.728,28.944C23.728,27.262 23.223,26.252 22.381,25.747C21.708,25.41 20.698,25.41 20.193,25.242L20.193,24.064L29.617,24.064L29.617,48.128L28.439,48.128C27.935,46.277 27.598,44.931 26.757,43.416C25.915,41.902 24.4,40.22 21.876,40.22C19.184,40.051 17.164,41.734 17.164,44.258C17.164,47.624 19.184,48.465 22.886,50.483C26.42,52.503 30.963,54.187 30.963,60.076C30.963,65.798 26.083,69.332 20.53,69.332L11.611,69.332L11.611,57.721L12.789,57.721C14.304,66.471 18.006,67.985 20.53,67.985C23.728,67.985 25.241,65.966 25.241,63.105C25.073,59.402 22.55,58.057 19.016,56.206C13.968,53.345 11.611,51.998 11.611,47.287C11.779,43.248 14.978,40.724 18.511,39.715C11.106,38.873 8.919,32.143 9.087,24.905C9.087,17.67 13.294,9.929 21.539,9.929L29.28,9.929L29.28,19.52ZM44.089,55.701L42.238,56.879C40.388,58.057 40.051,59.571 39.882,61.254C39.714,62.601 39.714,63.946 39.882,65.798C39.882,67.817 41.061,68.153 42.069,67.648C43.416,67.143 44.089,65.125 44.089,62.601L44.089,55.701ZM133.277,37.694L127.724,37.694L127.724,35.171C127.051,37.022 125.2,38.199 122.675,38.199C120.656,38.199 117.122,37.19 117.122,31.974C117.122,27.093 120.32,26.084 123.854,24.569C127.051,23.224 127.387,23.054 127.387,21.708L127.387,18.006C127.387,16.492 126.547,15.818 124.863,15.818C124.19,15.986 123.012,16.323 123.012,17.164C122.843,18.175 124.021,18.175 124.19,19.689C124.358,22.045 122.507,22.886 120.825,22.718C119.646,22.718 118.3,22.045 118.132,20.194C117.964,17.164 121.329,14.641 126.041,14.641C128.229,14.641 129.575,15.145 130.753,15.818C132.267,16.66 133.277,18.006 133.277,21.035L133.277,37.694ZM47.118,16.66C45.772,15.482 44.089,14.641 42.069,14.641C40.051,14.641 38.536,15.482 37.021,16.66C34.665,18.68 33.151,22.382 33.151,26.42C33.151,30.627 34.665,34.16 37.021,36.181C38.536,37.358 40.051,38.199 42.069,38.199C44.089,38.199 45.772,37.358 47.118,36.181C49.643,34.16 50.988,30.627 50.988,26.42C50.988,22.382 49.643,18.68 47.118,16.66ZM81.616,10.434L81.616,37.694L76.063,37.694L76.063,35.507C75.558,36.686 74.211,38.031 71.855,38.031C65.966,38.031 64.451,30.459 64.619,25.915C64.787,19.184 68.153,14.809 72.36,14.809C74.043,14.809 75.222,15.65 75.726,16.828L75.726,10.434L81.616,10.434ZM92.385,15.146L92.385,17.67C93.058,16.155 94.742,14.809 96.928,14.641C99.621,14.473 101.472,15.482 102.313,17.838C102.987,16.492 104.501,14.809 107.025,14.641C110.727,14.473 113.252,16.66 113.252,21.372L113.252,37.694L107.53,37.694L107.53,20.699C107.53,18.68 107.362,16.997 106.016,16.66C105.511,16.492 104.838,16.66 104.165,17.164C103.323,18.006 102.987,19.016 102.987,20.531L102.987,37.694L97.265,37.694L97.265,20.699C97.265,18.68 97.265,16.997 95.919,16.66C95.415,16.492 94.742,16.66 94.068,17.164C93.058,18.006 92.89,19.016 92.89,20.699L92.89,37.694L87.169,37.694L87.169,15.146L92.385,15.146ZM60.749,37.694L54.859,37.694L54.859,10.434L60.749,10.434L60.749,37.694ZM144.383,37.694L138.662,37.694L138.662,15.146L144.047,15.146L144.047,17.67C144.72,16.155 146.403,14.809 148.591,14.641C152.293,14.473 154.817,16.66 154.817,21.372L154.817,37.694L148.927,37.694L148.927,20.699C148.927,18.68 148.927,16.997 147.581,16.66C147.076,16.492 146.235,16.66 145.561,17.164C144.72,18.006 144.383,19.016 144.383,20.699L144.383,37.694ZM44.931,26.42C44.931,30.627 44.931,33.993 44.257,35.676C43.753,36.517 43.247,37.022 42.069,37.022C41.061,37.022 40.388,36.517 40.051,35.676C39.209,33.993 39.209,30.627 39.209,26.42C39.209,22.382 39.209,18.848 40.051,17.164C40.388,16.323 41.061,15.818 42.069,15.818C43.247,15.818 43.753,16.323 44.257,17.164C45.1,18.848 44.931,22.382 44.931,26.42ZM74.716,16.997C75.894,18.68 75.894,22.718 75.894,25.915C75.894,29.28 76.063,33.656 74.716,35.507C74.211,36.181 73.707,36.517 72.865,36.517C71.688,36.517 71.014,35.171 70.678,32.983C70.509,30.964 70.509,28.439 70.509,25.747C70.509,21.204 70.846,16.155 73.033,16.155C73.875,16.155 74.211,16.492 74.716,16.997ZM127.387,24.232L125.536,25.41C123.685,26.589 123.348,28.103 123.18,29.786C123.012,31.132 123.012,32.31 123.18,34.329C123.348,36.181 124.527,36.517 125.536,36.181C126.715,35.676 127.387,33.488 127.387,31.132L127.387,24.232Z" style="fill:white;"/>
    </g>
</svg>
